packages/icons/svg/Outline/attach.svg

<svg fill="none" height="24" viewBox="0 0 24 24" width="24" xmlns="http://www.w3.org/2000/svg"><path clip-rule="evenodd" d="m12 22c-3.309 0-6-2.557-6-5.698v-10.17c0-2.278 1.944-4.132 4.333-4.132 2.39 0 4.334 1.854 4.334 4.132l-.006 10.177c0 1.414-1.197 2.565-2.667 2.565s-2.666-1.151-2.666-2.566l.005-9.391c.001-.552.449-.999 1-.999h.001c.552 0 1 .448.999 1.001l-.005 9.39c0 .311.298.565.666.565s.667-.254.667-.566l.006-10.177c0-1.175-1.047-2.131-2.334-2.131-1.286 0-2.333.956-2.333 2.132v10.17c0 2.039 1.794 3.698 4 3.698s4-1.659 4-3.698v-10.17c0-.553.448-1 1-1s1 .447 1 1v10.17c0 3.141-2.691 5.698-6 5.698" fill="#6b7280" fill-rule="evenodd"/></svg>

<svg width="24" height="24" viewBox="0 0 24 24" fill="none" xmlns="http://www.w3.org/2000/svg">
<g id="Icon/Outline/attach">
<path id="Mask" fill-rule="evenodd" clip-rule="evenodd" d="M12 22C8.691 22 6 19.443 6 16.302V6.132C6 3.854 7.944 2 10.333 2C12.723 2 14.667 3.854 14.667 6.132L14.661 16.309C14.661 17.723 13.464 18.874 11.994 18.874C10.524 18.874 9.328 17.723 9.328 16.308L9.333 6.917C9.334 6.365 9.782 5.918 10.333 5.918H10.334C10.886 5.918 11.334 6.366 11.333 6.919L11.328 16.309C11.328 16.62 11.626 16.874 11.994 16.874C12.362 16.874 12.661 16.62 12.661 16.308L12.667 6.131C12.667 4.956 11.62 4 10.333 4C9.047 4 8 4.956 8 6.132V16.302C8 18.341 9.794 20 12 20C14.206 20 16 18.341 16 16.302V6.132C16 5.579 16.448 5.132 17 5.132C17.552 5.132 18 5.579 18 6.132V16.302C18 19.443 15.309 22 12 22Z" fill="#000000"/>
</g>
</svg>
